X: 119
T:March. JaW.119
M:C
Q:120
S:James Winder Ms, Lancashire, 1835-41
R:March
O:England
A:Wyresdale,Lancashire
H:1/8
Z:vmp.Chris Partington, Aug 2004
K:G
d>d|g2g>g d2d>d|B>cd>B G2zA|B2B>B ^c2c>c|d2d>d d2:|!
|:d.d|d>fa>f d2d>d|d>gb>g d2zd|e2e>e f>ga>f|g6zd|!
d2g>d B2d2|e2g>e c2e2|d>d c>c B>B A>A|G2g>gg2:|]
